X:1
T:Flute Sonata in E major
T:BWV 1035
T:J. S. Bach
%%score { 1 | 2 }
L:1/8
Q:1/4=60
M:4/4
K:E
V:1 treble nm="ハープ" snm="Hrp."
V:2 bass 
V:1
"^Adagio ma non tanto" B2- B/c/4d/4e/4f/4g/ f/{e}d/{c}B z2 | %1
 B2- B/4c/4d/4e/4f/4g/4a/ g/4f/4e/e z/ =dc/4B/4 | c/f/d/e/ A/G/4F/4G/e/ A/4G/4A/4G/4F z/ B/d/f/ | %3
 a/4g/4f/{f}g- g/4f/4e/4d/4c/d/4e/4 B^A z/ d/f/^a/ | %4
{b} c'/4b/4^a/{a}b- b/4a/4g/4f/4e/4d/4e/ eG/4F/4G/4F/4- F/4^A/4G/4F/4G/4A/4B/4c/4 | %5
 d/4B/4c/4d/4e/4g/4f/4e/4 bb/4^a/4b/ (3b/e/d/(3e/f/g/{=a} (3g/f/e/(3e/d/e/ | %6
 (3c'/e/d/(3e/f/g/ (3g/f/e/(3e/d/e/{f} d'-d'/4c'/4b/4^a/4{a} g3/2a/4b/4 | %7
 ^e/f/4c/4d/4^A/4B/4=e/4{d} c>B B2 z2 | f2- f/4a/4g/4f/4e/4d/4c/4B/4 B/4A/4G/4A/4G z/ Bc/4=d/4 | %9
 E2- E/4A/4G/4F/4G/4A/4B/4c/4 =d/4c/4B/{B}c z2 | %10
 g2- g/4b/4^a/4g/4f/4^e/4d/4c/4 B/^A/4B/4A z/ cd/4=e/4 | %11
 F2- F/4B/4^A/4G/4A/4B/4c/4d/4 e/4d/4c/{c}d z/ ^ab/4c'/4 | %12
 b/=g/g/^g/ g/b/b/=d/{e} d/4c/4^B/{B}c z/ ba/4g/4 | %13
 a/^e/e/f/ f/a/a/c/{d} c/4^B/4^A/{A}B z/4 f/4g/4a/<g/f/4 | %14
 (3e/c/^B/(3c/d/e/{f} (3e/c/B/(3c/=B/A/ (3f/A/G/(3A/B/c/{d} (3c/B/A/(3B/A/G/ | %15
 (3g/e/d/(3e/f/g/ (3g/f/e/(3e/d/c/ ^a/b/B- B/4d/4c/4B/4c/4d/4e/4f/4 | %16
 g/4b/4a/4g/4f/4e/4a/4f/4 e/4d/4e/4d/4e/4d/4e/ e2 z =c- | c/4B/4^A/{A}B z B g3/4a/8b/8b z =f- | %18
 f/4e/4d/e z e c'3/4d'/8e'/8e'- e'/4d'/4c'/4b/4^a/4g/4^f/4e/4 | %19
 d/4f/4a/4c'/4 b/>A/ GF/4G/4F/4E/4 !fermata!E4 |[M:2/4][Q:1/4=120] z2 z"^Allegro" B | e2 e2 | %22
 e/g/f/e/ d/c/B/A/ | B/e/d/c/ BA | B/4A/4B/4A/4G z B | e/d/e{f} e/d/e- | e/g/f/e/ d/c/B/A/ | %27
 B/e/d/c/ BA | B/4A/4B/4A/4G z g | f/a/g/f/ g/e/d/e/ | f/e/d/c/ B/c/d/e/ | f/a/g/f/ g/e/b | %32
 a/4g/4a/4g/4f z f | g/f/g/a/ g/f/e/d/ | c/e/d/f/ e/g/f/e/ | f/e/f/g/ f/e/d/c/ | %36
 B/d/c/e/ d/f/e/d/ |{f} e/d/e- e/g/f/e/ | ^a/g/f/e/ c'e | d/e/f/B/ d/c/B/^A/ | B/b/^a/g/ fe | %41
 d/f/e/d/ c/e/d/c/ | B/^A/B{c} B/A/B- | B/d/c/B/ c/d/e/f/ | g/f/g{a} g/f/g- | %45
 g/b/^a/g/ a/b/c'/d'/ | e'/d'/e'{d'} c'/b/c' |{b} ^a/g/a =g2- | g/f/e/=d/ c/B/^A/B/ | %49
 ^ef- f/=e/d/c/ | d/B/c/d/ e/g/f/e/ | f/b/^a/g/ f/e/d/c/ | B3 B | e2 e2 | e/g/f/e/ d/c/B/A/ | %55
 B/e/d/c/ BA | B/4A/4B/4A/4G z B | e/d/e{f} e/d/e- | e/g/f/e/ d/c/B/A/ | B/e/d/c/ BA | %60
 B/4A/4B/4A/4G z g | f/a/g/f/ g/e/d/e/ | f/e/d/c/ B/c/d/e/ | f/a/g/f/ g/e/b | a/4g/4a/4g/4f z f | %65
 g/f/g/a/ g/f/e/d/ | c/e/d/f/ e/g/f/e/ | f/e/f/g/ f/e/d/c/ | B/d/c/e/ d/f/e/d/ | %69
{f} e/d/e- e/g/f/e/ | ^a/g/f/e/ c'e | d/e/f/B/ d/c/B/^A/ | B/b/^a/g/ fe | d/f/e/d/ c/e/d/c/ | %74
 B/^A/B{c} B/A/B- | B/d/c/B/ c/d/e/f/ | g/f/g{a} g/f/g- | g/b/^a/g/ a/b/c'/d'/ | %78
 e'/d'/e'{d'} c'/b/c' |{b} ^a/g/a =g2- | g/f/e/=d/ c/B/^A/B/ | ^ef- f/=e/d/c/ | d/B/c/d/ e/g/f/e/ | %83
 f/b/^a/g/ f/e/d/c/ | B3 B | f2 f2 | f/a/g/f/ e/d/c/B/ | b/e/d/e/ f/a/g/f/ | ge z B | g2 g2 | %90
 g/b/a/g/ f/^e/d/c/ | c'/f/^e/f/ g/b/a/g/ | af z c | =d/c/d/e/ d/c/B/A/ | G/B/A/c/ B/=d/c/B/ | %95
 c/B/c/=d/ c/B/A/G/ | F/A/G/B/ A/c/B/A/ | B/A/B- B/=d/c/B/ | ^e/=d/c/B/ gB | A/B/c/F/ AG | F2 z c | %101
 =d/f/e/d/ e/c/B/c/ | =d/B/d/f/ b/d/c/B/ | c/e/=d/c/ d/B/A/B/ | c/A/c/e/ a/g/f/e/ | %105
 d/f/g/a/ c/f/g/a/ | B/c/d/e/ f/g/a/f/ | g/e/a/e/ ba/g/ | a/4g/4a/4g/4f z B | e2 e2 | %110
 e/g/f/e/ d/c/B/A/ | B/e/d/c/ BA | B/4A/4B/4A/4G z B | e/d/e{f} e/d/e- | e/d/e/g/ f/e/d/c/ | %115
 B/e/d/c/ BA | B/4A/4B/4A/4G z B | c/A/G/A/ B/c/d/e/ | f/g/a/b/ a/g/f/e/ | d/B/A/B/ c/d/e/f/ | %120
 g/a/b/c'/ b/a/g/f/ | e/c/B/c/ d/e/f/g/ | a/b/c'/=d'/ c'/b/a/g/ | f/b/a/g/ a/g/f/e/ | %124
 d/g/f/e/ f/e/d/c/ | Bc/d/ e/f/g/a/ | b2- b/g/f/e/ | d/c/B/c/ d/e/f/g/ | a2- a/d/e/f/ | %129
 g/e/f/g/ f/a/g/f/ | e/d/c/B/ c/d/e/f/ | g/a/b/e/ g/f/e/d/ |{d} e3 B | e2 e2 | e/g/f/e/ d/c/B/A/ | %135
 B/e/d/c/ BA | B/4A/4B/4A/4G z B | e/d/e{f} e/d/e- | e/g/f/e/ d/c/B/A/ | B/e/d/c/ BA | %140
 B/4A/4B/4A/4G z g | f/a/g/f/ g/e/d/e/ | f/e/d/c/ B/c/d/e/ | f/a/g/f/ g/e/b | a/4g/4a/4g/4f z f | %145
 g/f/g/a/ g/f/e/d/ | c/e/d/f/ e/g/f/e/ | f/e/f/g/ f/e/d/c/ | B/d/c/e/ d/f/e/d/ | %149
{f} e/d/e- e/g/f/e/ | ^a/g/f/e/ c'e | d/e/f/B/ d/c/B/^A/ | B/b/^a/g/ fe | d/f/e/d/ c/e/d/c/ | %154
 B/^A/B{c} B/A/B- | B/d/c/B/ c/d/e/f/ | g/f/g{a} g/f/g- | g/b/^a/g/ a/b/c'/d'/ | %158
 e'/d'/e'{d'} c'/b/c' |{b} ^a/g/a =g2- | g/f/e/=d/ c/B/^A/B/ | ^ef- f/=e/d/c/ | d/B/c/d/ e/g/f/e/ | %163
 f/b/^a/g/ f/e/d/c/ | B3 B | f2 f2 | f/a/g/f/ e/d/c/B/ | b/e/d/e/ f/a/g/f/ | ge z B | g2 g2 | %170
 g/b/a/g/ f/^e/d/c/ | c'/f/^e/f/ g/b/a/g/ | af z c | =d/c/d/e/ d/c/B/A/ | G/B/A/c/ B/=d/c/B/ | %175
 c/B/c/=d/ c/B/A/G/ | F/A/G/B/ A/c/B/A/ | B/A/B- B/=d/c/B/ | ^e/=d/c/B/ gB | A/B/c/F/ AG | F2 z c | %181
 =d/f/e/d/ e/c/B/c/ | =d/B/d/f/ b/d/c/B/ | c/e/=d/c/ d/B/A/B/ | c/A/c/e/ a/g/f/e/ | %185
 d/f/g/a/ c/f/g/a/ | B/c/d/e/ f/g/a/f/ | g/e/a/e/ ba/g/ | a/4g/4a/4g/4f z B | e2 e2 | %190
 e/g/f/e/ d/c/B/A/ | B/e/d/c/ BA | B/4A/4B/4A/4G z B | e/d/e{f} e/d/e- | e/d/e/g/ f/e/d/c/ | %195
 B/e/d/c/ BA | B/4A/4B/4A/4G z B | c/A/G/A/ B/c/d/e/ | f/g/a/b/ a/g/f/e/ | d/B/A/B/ c/d/e/f/ | %200
 g/a/b/c'/ b/a/g/f/ | e/c/B/c/ d/e/f/g/ | a/b/c'/=d'/ c'/b/a/g/ | f/b/a/g/ a/g/f/e/ | %204
 d/g/f/e/ f/e/d/c/ | Bc/d/ e/f/g/a/ | b2- b/g/f/e/ | d/c/B/c/ d/e/f/g/ | a2- a/d/e/f/ | %209
 g/e/f/g/ f/a/g/f/ | e/d/c/B/ c/d/e/f/ | g/a/b/e/ g/f/e/d/ |{d} e3 z | %213
[M:6/8]"^Sicilliano"[Q:1/4=80] z3 z2 g | c>ed efg | f/a/ g2- g2 ^B | c/f/e/d/e/c/ F/^B/c/e/d | %217
 G3- G2 f |{f} d'>^bc' b/a/g/f/^e/f/ |{f} ^e>gf gc=e |{e} c'>^ab a/g/f/e/d/c/ |{c} d>fe fB{f}a | %222
{a} g3/2f/4e/4f Bed |{e} =g3- gf/e/d/c/ | B/d/e/c/^A/B/{f} g>ag/4f/4g/4f/4 | e3- e2 b | c>ed efg | %227
 f/a/ g2- g2 ^B | c/f/e/d/e/c/ F/^B/c/e/d | G3- G2 f |{f} d'>^bc' b/a/g/f/^e/f/ |{f} ^e>gf gc=e | %232
{e} c'>^ab a/g/f/e/d/c/ |{c} d>fe fB{f}a |{a} g3/2f/4e/4f Bed |{e} =g3- gf/e/d/c/ | %236
 B/d/e/c/^A/B/{f} g>ag/4f/4g/4f/4 | e3- e2 b | e>gf gab |{a} c' b2- b>ag/f/ | %240
 ^e/f/g/=d/c/B/ c/e/g/B/A/G/ | A3- A2 f | =d'/b/=g/f/g/^a/ b/g/^e/d/e/f/ | %243
 g/=d/B/^A/B/c/ d/B/G/F/G/^e/ |{^e} f>ba- a/g/a/4g/4f/g/4f/4e/ |{^e} f3- f2 c | %246
 a>c'b{b} c'b/a/g/f/ | e/d/ b2- b2 a |{a} g>ef e/f/g/^a/b/c'/ | f3- f2 a | ^B>dc d/e/f/g/a/f/ | %251
 g/f/e/d/c/^B/ c/=B/A/G/A/=G/ | G>fe- e/d/e/d/c/^B/ | c3- c2 b | e>gf gab |{a} c' b2- b>ag/f/ | %256
 ^e/f/g/=d/c/B/ c/e/g/B/A/G/ | A3- A2 f | =d'/b/=g/f/g/^a/ b/g/^e/d/e/f/ | %259
 g/=d/B/^A/B/c/ d/B/G/F/G/^e/ |{^e} f>ba- a/g/a/4g/4f/g/4f/4e/ |{^e} f3- f2 c | %262
 a>c'b{b} c'b/a/g/f/ | e/d/ b2- b2 a |{a} g>ef e/f/g/^a/b/c'/ | f3- f2 a | ^B>dc d/e/f/g/a/f/ | %267
 g/f/e/d/c/^B/ c/=B/A/G/A/=G/ | G>fe- e/d/e/d/c/^B/ | c3- c2 z | %270
[M:3/4]"^Allegro assai"[Q:1/4=120] z2 z B GB/4A/4B/4A/4 | Bd eB z/ c/d/e/ | fG Ac z/ c/B/A/ | %273
 G/B/e/d/ e/B/g/f/ g/e/b | e/4d/4e/4d/4c/d/ B2 z2 | z6 | z6 | z6 | z2 z B GB/4A/4B/4A/4 | %279
 Bd eB z/ c/d/e/ | fG Ac z/ c/B/A/ | G/B/e/d/ e/B/g/f/ g/e/b | e/4d/4e/4d/4c/d/ Bf df/4e/4f/4e/4 | %283
 f^a be- e/d/f/=a/ | g/e/B/G/ Eg eg/4f/4g/4f/4 | g^b c'f- f/^e/g/=b/ | %286
 ^a/f/c/^A/ G/4F/4G/4F/4G/4F/4G/ A/B/c/d/ | e/f/e/d/ e/g/f/g/ c/e/d/e/ | ^a/b/a/g/ a/c'/b/c'/ fe' | %289
 z d' z c' z/ b/c'/^a/ | b/f/e/d/ e/f/d/e/ cb | z/ e/d/c/ d/e/c/d/ Bb | %292
 z/ d/c/B/ c/d/B/c/ ^A/c/e/c/ | gf- f/e/d/f/ e/d/c/e/ | d/B/^A/B/ c/d/e/f/ g/b/^a/c'/ | %295
 b^a/g/ f/e/d/c/ B/^A/G/F/ | E>e d2 d/4c/4B/c | B3 B GB/4A/4B/4A/4 | Bd eB z/ c/d/e/ | %299
 fG Ac z/ c/B/A/ | G/B/e/d/ e/B/g/f/ g/e/b | e/4d/4e/4d/4c/d/ B2 z2 | z6 | z6 | z6 | %305
 z2 z B GB/4A/4B/4A/4 | Bd eB z/ c/d/e/ | fG Ac z/ c/B/A/ | G/B/e/d/ e/B/g/f/ g/e/b | %309
 e/4d/4e/4d/4c/d/ Bf df/4e/4f/4e/4 | f^a be- e/d/f/=a/ | g/e/B/G/ Eg eg/4f/4g/4f/4 | %312
 g^b c'f- f/^e/g/=b/ | ^a/f/c/^A/ G/4F/4G/4F/4G/4F/4G/ A/B/c/d/ | e/f/e/d/ e/g/f/g/ c/e/d/e/ | %315
 ^a/b/a/g/ a/c'/b/c'/ fe' | z d' z c' z/ b/c'/^a/ | b/f/e/d/ e/f/d/e/ cb | z/ e/d/c/ d/e/c/d/ Bb | %319
 z/ d/c/B/ c/d/B/c/ ^A/c/e/c/ | gf- f/e/d/f/ e/d/c/e/ | d/B/^A/B/ c/d/e/f/ g/b/^a/c'/ | %322
 b^a/g/ f/e/d/c/ B/^A/G/F/ | E>e d2 d/4c/4B/c | B3 f de | f^A Ba z/ g/f/a/ | gd e=d' z/ c'/b/d'/ | %327
 c'/f/^e/f/ b/g/a/f/ g/e/f/g/ | f/^e/d/c/ c'2- c'/g/a/b/ | a/f/^e/f/ =d/c/d/c'/ b/g/a/f/ | %330
 g/e/d/e/ c/^B/c/b/ a/f/g/e/ | f/d/c/d/ ^B/^A/B/a/ g/e/f/d/ | e/c/^B/c/ d/c/B/c/ ^e/c/B/c/ | %333
 f/c/^B/c/ g/c/B/c/ a/g/f/e/ | d/e/f/d/ ^B/c/d/B/ F/A/G/F/ | Eg z/ c/^B/f/ e/c/d/B/ | %336
{^B} c3 g ^eg/4f/4g/4f/4 | g^b c'f- f/^e/g/=b/ | a/f/c/A/ Ff df/4e/4f/4e/4 | f^a be- e/d/f/=a/ | %340
 g/e/B/G/ E/F/G/A/ B/c/=d/B/ | c/e/f/g/ f/e/g/f/ aB | z/ d/e/f/ e/d/f/e/ gA | %343
 z/ c/d/e/ d/c/e/d/ f/d/B/d/ | f/a/c'- c'/b/a/c'/ b/a/g/f/ | g/b/c'/b/ a/g/f/e/ g/f/e/d/ | %346
 e/c/=d- d/g/a/b/ a/g/f/e/ | =d/B/c- c/e/^d/c/ d/e/f/g/ | ad z f z A | G/E/F/G/ A/B/c/d/ e/f/g/a/ | %350
 b>e g2 g/4f/4e/f | e3 f de | f^A Ba z/ g/f/a/ | gd e=d' z/ c'/b/d'/ | %354
 c'/f/^e/f/ b/g/a/f/ g/e/f/g/ | f/^e/d/c/ c'2- c'/g/a/b/ | a/f/^e/f/ =d/c/d/c'/ b/g/a/f/ | %357
 g/e/d/e/ c/^B/c/b/ a/f/g/e/ | f/d/c/d/ ^B/^A/B/a/ g/e/f/d/ | e/c/^B/c/ d/c/B/c/ ^e/c/B/c/ | %360
 f/c/^B/c/ g/c/B/c/ a/g/f/e/ | d/e/f/d/ ^B/c/d/B/ F/A/G/F/ | Eg z/ c/^B/f/ e/c/d/B/ | %363
{^B} c3 g ^eg/4f/4g/4f/4 | g^b c'f- f/^e/g/=b/ | a/f/c/A/ Ff df/4e/4f/4e/4 | f^a be- e/d/f/=a/ | %367
 g/e/B/G/ E/F/G/A/ B/c/=d/B/ | c/e/f/g/ f/e/g/f/ aB | z/ d/e/f/ e/d/f/e/ gA | %370
 z/ c/d/e/ d/c/e/d/ f/d/B/d/ | f/a/c'- c'/b/a/c'/ b/a/g/f/ | g/b/c'/b/ a/g/f/e/ g/f/e/d/ | %373
 e/c/=d- d/g/a/b/ a/g/f/e/ | =d/B/c- c/e/^d/c/ d/e/f/g/ | ad z f z A | G/E/F/G/ A/B/c/d/ e/f/g/a/ | %377
 b>e g2 g/4f/4e/f | e3 z z2 |] %379
V:2
 E,F,G,E, B,3/2A,/4G,/4 F,/E,/D,/C,/ | D,B,,C,D, E,3/2G,/4F,/4 G,E, | %2
 A,G,F,E, B,3/2B,,/4C,/4 D,B,, |{F,} E,3/2E,,/4D,,/4 E,,E, F,3/2F,,/4E,,/4 F,,F, | %4
 G,3/2G,,/4F,,/4 G,,G, ^A,3/2^A,,/4G,,/4 A,,F,, | B,,G,F,F,, G,,G, z G,, | %6
 ^A,,^A, z A,, B,,B,E,^E, | F,E,F,F,, B,,3/2D,/4C,/4 D,/E,/F,/G,/ | A,F,D,B,, E,3/2B,/4C/4 =DB, | %9
 G,/A,/B,/A,/ G,E, A,3/2B,/4C/4 B,/A,/G,/F,/ | ^E,G,E,C, F,3/2C/4D/4 EC | %11
 ^A,/B,/C/B,/ A,G, =G,3/2^G,/4A,/4 D,=G, | G,2 z F, ^E,3/2F,/4G,/4 C,E, | %13
 F,2 z E, D,3/2E,/4F,/4 ^B,,G,, | C,C z C, D,D z D, | E,E z E,- E,D,/>C,/ D,B,, | %16
 E,A,B,B,, E,3/2E/4D/4 EE, | D,3/2D/4C/4 DD, =D,3/2=D/4C/4 DD, | %18
 C,3/2C/4B,/4 CG, ^A,3/2^A,,/4G,,/4 A,,C, | F,G,/>A,/ B,B,, !fermata!E,4 |[M:2/4] z2 z z | %21
 z E, G,E, | C,C z F, | G,A, B,B,, | E,B,, E,,2 | z E, G,E, | C,C z F, | G,A, B,B,, | E,B,, E,,E, | %29
 D, z E, z | B,,B, G,E, | D, z E, z | B,B,, D,B,, | z E, EG, | ^A,B, CA, | z D, DF, | G,^A, B,G, | %37
 z C, C^A, | F,G, ^A,F, | B,D, E,F, | G,C ^A,F, | B,G, E,F, | B,, z ^A,, z | G,,A, G,F, | %44
 E, z D, z | C,F, E,D, | C, z E, z | F, z z/ C/=D/E/ | ^A,B, E,=G, | F,F,, G,,^A,, | B,, z C, z | %51
 z D, E,F, | B,,3 z | z E, G,E, | C,C z F, | G,A, B,B,, | E,B,, E,,2 | z E, G,E, | C,C z F, | %59
 G,A, B,B,, | E,B,, E,,E, | D, z E, z | B,,B, G,E, | D, z E, z | B,B,, D,B,, | z E, EG, | %66
 ^A,B, CA, | z D, DF, | G,^A, B,G, | z C, C^A, | F,G, ^A,F, | B,D, E,F, | G,C ^A,F, | B,G, E,F, | %74
 B,, z ^A,, z | G,,A, G,F, | E, z D, z | C,F, E,D, | C, z E, z | F, z z/ C/=D/E/ | ^A,B, E,=G, | %81
 F,F,, G,,^A,, | B,, z C, z | z D, E,F, | B,,3 z | z B, D,F, | B,,B, z A, | G,C A,B, | %88
 E,G,/F,/ E,D, | C,C G,B, | ^E,C z B, | A,=D B,C | F,A,/G,/ A,F, | z B, B,,=D, | E,F, G,E, | %95
 z A, A,,C, | =D,E, F,D, | z G,, G,^E, | C,D, ^E,C, | F,A,, B,,C, | F,,F,/G,/ A,F, | B, z ^A, z | %102
 z B, G,E, | A, z G, z | z A, CA, | F, z E, z | D,F, D,B,, | E,C, G,,A,, | %108
 B,,/A,,/B,,/C,/ B,,/A,,/G,,/F,,/ | E,,E, G,E, | C,C z F, | G,A, B,B,, | E,B,, E,,2 | z E, G,E, | %114
 C,C z F, | G,A, B,B,, | E,E,,/F,,/ G,,E,, | A,, z G,, z | z F,, G,,A,, | B,, z A,, z | %120
 z G,, A,,B,, | C, z B,, z | z A,, B,,C, | D,B,, E,C, | B,,2 z B,, | E, z E, z | %126
 E,/G,/F,/E,/ F,/E,/D,/C,/ | F, z F, z | F,/A,/G,/F,/ G,/F,/E,/D,/ | E, z A,, z | z A, G,F, | %131
 E,G,, A,,B,, | E,,3 z | z E, G,E, | C,C z F, | G,A, B,B,, | E,B,, E,,2 | z E, G,E, | C,C z F, | %139
 G,A, B,B,, | E,B,, E,,E, | D, z E, z | B,,B, G,E, | D, z E, z | B,B,, D,B,, | z E, EG, | %146
 ^A,B, CA, | z D, DF, | G,^A, B,G, | z C, C^A, | F,G, ^A,F, | B,D, E,F, | G,C ^A,F, | B,G, E,F, | %154
 B,, z ^A,, z | G,,A, G,F, | E, z D, z | C,F, E,D, | C, z E, z | F, z z/ C/=D/E/ | ^A,B, E,=G, | %161
 F,F,, G,,^A,, | B,, z C, z | z D, E,F, | B,,3 z | z B, D,F, | B,,B, z A, | G,C A,B, | %168
 E,G,/F,/ E,D, | C,C G,B, | ^E,C z B, | A,=D B,C | F,A,/G,/ A,F, | z B, B,,=D, | E,F, G,E, | %175
 z A, A,,C, | =D,E, F,D, | z G,, G,^E, | C,D, ^E,C, | F,A,, B,,C, | F,,F,/G,/ A,F, | B, z ^A, z | %182
 z B, G,E, | A, z G, z | z A, CA, | F, z E, z | D,F, D,B,, | E,C, G,,A,, | %188
 B,,/A,,/B,,/C,/ B,,/A,,/G,,/F,,/ | E,,E, G,E, | C,C z F, | G,A, B,B,, | E,B,, E,,2 | z E, G,E, | %194
 C,C z F, | G,A, B,B,, | E,E,,/F,,/ G,,E,, | A,, z G,, z | z F,, G,,A,, | B,, z A,, z | %200
 z G,, A,,B,, | C, z B,, z | z A,, B,,C, | D,B,, E,C, | B,,2 z B,, | E, z E, z | %206
 E,/G,/F,/E,/ F,/E,/D,/C,/ | F, z F, z | F,/A,/G,/F,/ G,/F,/E,/D,/ | E, z A,, z | z A, G,F, | %211
 E,G,, A,,B,, | E,,3 z |[M:6/8] z6 | z3 z2 G, | C,>E,D, E,F,G, | F,/A,/ G,2- G,2 ^B,, | %217
 C,/F,/E,/D,/E,/C,/ F,,/^B,,/C,/E,/D, | G,,3- G,,2 G, | C>B,=D C/B,/^A,/G,/A,/C/ | F,3- F,2 F,, | %221
 B,,>A,,C, B,,/A,,/G,,/F,,/E,,/D,,/ | E,,C,A,, B,,2 B, | ^A,/B,/C/D/E/C/ F,2 E, | D,G,E, B,2 B,, | %225
 E,>B,,G,, E,,2 z | z3 z2 G, | C,>E,D, E,F,G, | F,/A,/ G,2- G,2 ^B,, | %229
 C,/F,/E,/D,/E,/C,/ F,,/^B,,/C,/E,/D, | G,,3- G,,2 G, | C>B,=D C/B,/^A,/G,/A,/C/ | F,3- F,2 F,, | %233
 B,,>A,,C, B,,/A,,/G,,/F,,/E,,/D,,/ | E,,C,A,, B,,2 B, | ^A,/B,/C/D/E/C/ F,2 E, | D,G,E, B,2 B,, | %237
 E,>B,,G,, E,,2 z | z3 z2 B, | E,>G,F, G,A,B, |{A,} C B,2- B,2 ^E, | %241
 F,/G,/A,/E,/=D,/C,/ D,/F,/A,/C,/B,,/A,,/ | B,,>=D,C, D,B, z | ^E,>F,G, B,,E, z | %244
 A,,=D,C, B,,C,C,, | F,,>A,,G,, A,,B,,C, | F,,3- F,,2 A,, | B,,>G,,A,, G,,A,,/B,,/C,/D,/ | %248
 E,/F,/{C,} ^B,,2 C,2 G, | A,>B,G, A,/G,/F,/E,/D,/C,/ | D,/E,/F,/G,/A,/F,/ ^B,,/C,/D,/E,/F,/D,/ | %251
 E,F,G, A,F,D, | ^B,,G,,C, F,G,G,, | C,>E,G, C2 z | z3 z2 B, | E,>G,F, G,A,B, | %256
{A,} C B,2- B,2 ^E, | F,/G,/A,/E,/=D,/C,/ D,/F,/A,/C,/B,,/A,,/ | B,,>=D,C, D,B, z | %259
 ^E,>F,G, B,,E, z | A,,=D,C, B,,C,C,, | F,,>A,,G,, A,,B,,C, | F,,3- F,,2 A,, | %263
 B,,>G,,A,, G,,A,,/B,,/C,/D,/ | E,/F,/{C,} ^B,,2 C,2 G, | A,>B,G, A,/G,/F,/E,/D,/C,/ | %266
 D,/E,/F,/G,/A,/F,/ ^B,,/C,/D,/E,/F,/D,/ | E,F,G, A,F,D, | ^B,,G,,C, F,G,G,, | C,>E,G, C2 z | %270
[M:3/4] z2 z2 E,,2 | E,2 z G, F,E, | D,2 z E, F,D, | E,2 z B,, E,G, | B,2 z B,,/C,/ D,/E,/F,/G,/ | %275
 A,/B,/A,/G,/ A,/C/B,/C/ F,/A,/G,/A,/ | D,/E,/D,/C,/ D,/F,/E,/F,/ B,,/D,/C,/D,/ | %277
 G,,E, A,,F, B,,D, | E,B,, E,,2 z2 | E,2 z G, F,E, | D,2 z E, F,D, | E,2 z B,, E,G, | B,2 B,,2 z2 | %283
 z2 z G, F,B, | E,2 z2 z2 | z2 z D, G,C, | F,2 z F, E,D, | C,C/B,/ CD E z | %288
 z C,/B,,/ C,G,, ^A,,F,, | B,, z E,, z F,, z | G,,2 z G, E,C, | F,,2 z F, D,B,, | %292
 E,,2 z E, C,^A,, | D,,D, E,F, G,^A, | B,F, G,^A, B,C | DB,, C,D, E,F, | G,E, F,2 F,,2 | %297
 B,,3 z E,,2 | E,2 z G, F,E, | D,2 z E, F,D, | E,2 z B,, E,G, | B,2 z B,,/C,/ D,/E,/F,/G,/ | %302
 A,/B,/A,/G,/ A,/C/B,/C/ F,/A,/G,/A,/ | D,/E,/D,/C,/ D,/F,/E,/F,/ B,,/D,/C,/D,/ | %304
 G,,E, A,,F, B,,D, | E,B,, E,,2 z2 | E,2 z G, F,E, | D,2 z E, F,D, | E,2 z B,, E,G, | B,2 B,,2 z2 | %310
 z2 z G, F,B, | E,2 z2 z2 | z2 z D, G,C, | F,2 z F, E,D, | C,C/B,/ CD E z | %315
 z C,/B,,/ C,G,, ^A,,F,, | B,, z E,, z F,, z | G,,2 z G, E,C, | F,,2 z F, D,B,, | %319
 E,,2 z E, C,^A,, | D,,D, E,F, G,^A, | B,F, G,^A, B,C | DB,, C,D, E,F, | G,E, F,2 F,,2 | %324
 B,,3 z B,2 | D,2 z F, B,,D, | E,,2 z B, E,G, | A,,=D, z C, z B,, | C,2 z D, ^E,C, | %329
 F,A, z B,, z =D, | E,G, z A,, z C, | D,F, z G,, z ^B,, | C,E, z F,, z G,, | z A,, C,^E, F,G, | %334
 A,D, z F, z ^B,, | C,E,, A,,F,, G,,G, | C,G, C2 z2 | z2 z A, G,C | F,2 z2 z2 | z2 z G, F,B, | %340
 E,2 z B,, G,,E,, | A,,2 z B,, C,D, | G,,2 z A,, B,,C, | F,,2 z G,, A,,A,- | %344
 A,F,/G,/4A,/4 D,F, D,B,, | E,G,, C,A,, B,,B, | G,B,/G,/ E,E,, F,,G,, | z A,, A,B, A,G, | %348
 F, z D, z B,, z | E,E DC B,A, | G,A, B,2 B,,2 | E,,3 z B,2 | D,2 z F, B,,D, | E,,2 z B, E,G, | %354
 A,,=D, z C, z B,, | C,2 z D, ^E,C, | F,A, z B,, z =D, | E,G, z A,, z C, | D,F, z G,, z ^B,, | %359
 C,E, z F,, z G,, | z A,, C,^E, F,G, | A,D, z F, z ^B,, | C,E,, A,,F,, G,,G, | C,G, C2 z2 | %364
 z2 z A, G,C | F,2 z2 z2 | z2 z G, F,B, | E,2 z B,, G,,E,, | A,,2 z B,, C,D, | G,,2 z A,, B,,C, | %370
 F,,2 z G,, A,,A,- | A,F,/G,/4A,/4 D,F, D,B,, | E,G,, C,A,, B,,B, | G,B,/G,/ E,E,, F,,G,, | %374
 z A,, A,B, A,G, | F, z D, z B,, z | E,E DC B,A, | G,A, B,2 B,,2 | E,,3 z z2 |] %379

